icons/plexis/48/qtpass.svg

<svg viewBox="0 0 48 48" xmlns="http://www.w3.org/2000/svg" xmlns:xlink="http://www.w3.org/1999/xlink">
  <linearGradient id="a" gradientTransform="matrix(0 -1 1 0 -.0000015 47.999998)" gradientUnits="userSpaceOnUse" x1="1" x2="47">
    <stop offset="0" stop-color="#e4e4e4"/>
    <stop offset="1" stop-color="#eee"/>
  </linearGradient>
  <radialGradient id="b" cx="13" cy="17.25" gradientTransform="matrix(1 0 0 .875 0 2.15625)" gradientUnits="userSpaceOnUse" r="10">
    <stop offset="0" stop-color="#1a5a9a"/>
    <stop offset="1" stop-color="#134271"/>
  </radialGradient>
  <path d="m47 24c0 22.703-.297 23-23 23-22.703 0-23-.297-23-23 0-22.703.297-23 23-23 22.703 0 23 .297 23 23z" fill="url(#a)"/>
  <g transform="translate(11 11)">
    <path d="m14 1a7 7 0 0 0-7 7v2.025c-1.768.845-3 2.635-3 4.725 0 2.25 1 3.25 2 4.25l8 8 8-8c1-1 2-2 2-4.25 0-2.09-1.232-3.88-3-4.725v-2.025a7 7 0 0 0-7-7m0 3a4 4 0 0 1 4 4v1.555c-1.732.251-3.245 1.357-4 2.972-.755-1.615-2.268-2.721-4-2.972v-1.555a4 4 0 0 1 4-4z" opacity=".1"/>
    <path d="m13 0a7 7 0 0 0-7 7v4h3v-4a4 4 0 0 1 4-4 4 4 0 0 1  4 4v4h3v-4a7 7 0 0 0-7-7" fill="#929292"/>
    <path d="m8.25 8.5c-2.899 0-5.25 2.351-5.25 5.25 0 2.25 1 3.25 2 4.25l8 8 8-8c1-1 2-2 2-4.25 0-2.899-2.351-5.25-5.25-5.25-2.036.002-3.888 1.182-4.75 3.03-.862-1.845-2.714-3.02-4.75-3.03" fill="url(#b)"/>
    <path d="m13 13a2 2 0 0 0-2 2 2 2 0 0 0  1.188 1.826l-.989 4.174h3.602l-.988-4.176a2 2 0 0 0 1.187-1.824 2 2 0 0 0-2-2" fill="#1a1a1a" fill-opacity=".784"/>
  </g>
</svg>

<svg xmlns="http://www.w3.org/2000/svg" viewBox="0 0 48 48">
 <defs>
  <linearGradient id="linearGradient3764" x1="1" x2="47" gradientUnits="userSpaceOnUse" gradientTransform="matrix(0,-1,1,0,-1.5e-6,47.999998)">
   <stop style="stop-color:#e4e4e4;stop-opacity:1"/>
   <stop offset="1" style="stop-color:#eee;stop-opacity:1"/>
  </linearGradient>
  <radialGradient id="radialGradient4175" cx="13" cy="17.25" r="10" gradientTransform="matrix(1,0,0,0.875,0,2.15625)" gradientUnits="userSpaceOnUse">
   <stop style="stop-color:#1a5a9a;stop-opacity:1"/>
   <stop offset="1" style="stop-color:#134271;stop-opacity:1"/>
  </radialGradient>
 </defs>
 <g>
  
  
  
 </g>
 <g>
  <path d="m 47,24 C 47,46.703 46.703,47 24,47 1.297,47 1,46.703 1,24 1,1.297 1.297,1 24,1 46.703,1 47,1.297 47,24 z" style="fill:url(#linearGradient3764);fill-opacity:1"/>
 </g>
 <g>
  
 </g>
 <g transform="translate(11,11)">
  <path d="M 14 1 A 7 7 0 0 0 7 8 l 0 2.025 C 5.232 10.87 4 12.66 4 14.75 4 17 5 18 6 19 l 8 8 8 -8 c 1 -1 2 -2 2 -4.25 0 -2.09 -1.232 -3.88 -3 -4.725 L 21 8 A 7 7 0 0 0 14 1 m 0 3 a 4 4 0 0 1 4 4 l 0 1.555 C 16.268 9.806 14.755 10.912 14 12.527 13.245 10.912 11.732 9.806 10 9.555 L 10 8 a 4 4 0 0 1 4 -4 z" style="fill:#000;opacity:0.1;fill-opacity:1;stroke:none"/>
  <path d="M 13 0 A 7 7 0 0 0 6 7 l 0 4 3 0 0 -4 a 4 4 0 0 1 4 -4 4 4 0 0 1 4 4 l 0 4 3 0 0 -4 A 7 7 0 0 0 13 0" style="fill:#929292;opacity:1;fill-opacity:1;stroke:none"/>
  <path d="m 8.25 8.5 c -2.899 0 -5.25 2.351 -5.25 5.25 0 2.25 1 3.25 2 4.25 l 8 8 8 -8 c 1 -1 2 -2 2 -4.25 c 0 -2.899 -2.351 -5.25 -5.25 -5.25 -2.036 0.002 -3.888 1.182 -4.75 3.03 -0.862 -1.845 -2.714 -3.02 -4.75 -3.03" style="fill:url(#radialGradient4175);opacity:1;fill-opacity:1;stroke:none"/>
  <path d="m 13 13 a 2 2 0 0 0 -2 2 2 2 0 0 0 1.188 1.826 L 11.199 21 14.801 21 13.813 16.824 A 2 2 0 0 0 15 15 2 2 0 0 0 13 13" style="fill:#1a1a1a;opacity:1;fill-opacity:0.784;stroke:none"/>
 </g>
</svg>
